X:28
T:Lady Campbells Delight. LIT.028
M:2/2
Q:1/4=130
L:1/8
B:Wm. Litten MS, 1802
Z:Village Music Project 2017 Anne Wride
K:D
B | AD AF AD BF | AD BF BE EF | AD AF de fe | dB A/B/d/F/ AD D :|
|: f | dB AF de fe | dB AF eE Ee | dB AF de fe | dB A/B/d/F/ AD D :|
|: B | AD AG/F/ BE EF | AD AG/F/ de fe | dD FE/D/ de fe | dB A/B/d/F/ AD D :|
|: d | df Bf df Bf | df Bf eE Ee | df Bf de fe | dB A/B/d/F/ AD D :|

